exampleSite/static/images/illustrations/leaf-cyan-lg.svg

<svg width="464" height="291" viewBox="0 0 464 291" fill="none" xmlns="http://www.w3.org/2000/svg">
<g clip-path="url(#clip0)">
<path d="M0 0H464V291H0V0Z" fill="white"/>
<path d="M461.207 290.339C461.207 290.339 458.658 292.655 456.751 288.617C454.844 284.579 446.021 264.17 434.464 250.433C422.905 236.696 410.885 220.952 389.002 221.878C367.118 222.804 360.492 213.852 353.402 207.215C346.314 200.577 340.149 196.565 321.811 198.88C303.471 201.195 303.471 216.939 284.516 221.106C265.561 225.274 255.082 224.811 231.966 208.758C208.849 192.705 191.897 206.751 172.48 209.684C153.062 212.617 139.816 207.224 122.568 199.324C105.32 191.425 89.192 173.962 81.782 148.423C74.372 122.883 79.603 117.208 34.925 103.673C-9.753 90.14 -0.652997 40.43 4.168 26.759C8.99 13.085 47.205 0.936037 47.205 0.936037C47.205 0.936037 74.155 0.861036 91.59 30.984C109.025 61.108 128.858 68.966 144.114 62.854C159.37 56.742 174.19 48.229 204.266 65.474C234.342 82.718 268.994 134.671 280.327 143.62C291.66 152.57 460.541 210.912 461.207 290.339Z" fill="#AFBC00"/>
<path d="M39.0398 -0.000240448C42.9776 -0.0150783 46.8894 0.63645 50.6098 1.92676C74.6508 10.2618 72.0008 18.9058 82.1718 42.9848C92.3438 67.0638 113.634 71.5908 143.093 62.2508C186.949 48.3468 204.883 90.5688 217.343 101.709C242.266 123.525 309.8 136.623 357.261 156.28C425.777 184.657 455.115 241.171 461.279 263.553C467.443 285.933 461.206 290.339 461.206 290.339C458.818 292.499 457.272 283.927 451.724 269.263C446.177 254.6 432.307 232.837 423.214 228.67C414.122 224.502 408.573 215.549 398.402 211.999C388.231 208.449 386.69 213.389 367.889 194.867C349.088 176.344 332.752 170.788 304.396 197.337C276.04 223.885 255.082 226.663 245.22 209.993C235.357 193.323 211.623 175.109 183.884 193.323C156.144 211.536 123.164 210.919 103.131 180.666C83.0958 150.413 98.8158 122.63 71.0758 108.121C43.3358 93.6108 7.89281 99.4778 2.03581 55.9508C-2.90419 19.2228 17.9578 0.0797595 39.0398 -0.000240448ZM49.5018 51.3198C49.5018 51.3198 50.2668 52.5928 52.3098 54.9548C62.1728 67.1528 100.037 108.685 182.96 143.313C281.28 184.37 322.559 179.363 322.559 179.363C322.559 179.363 256.314 170.787 160.151 123.864C84.8218 87.1078 59.6978 63.4928 52.3108 54.9538C50.4788 52.6898 49.5018 51.3188 49.5018 51.3188V51.3198Z" fill="#C5D30A"/>
</g>
<defs>
<clipPath id="clip0">
<path d="M0 0H464V291H0V0Z" fill="white"/>
</clipPath>
</defs>
</svg>

<svg xmlns="http://www.w3.org/2000/svg" width="464" height="291"><path d="M461.207 290.339s-2.549 2.316-4.456-1.722c-1.907-4.038-10.73-24.447-22.287-38.184-11.559-13.737-23.579-29.481-45.462-28.555-21.884.926-28.51-8.026-35.6-14.663-7.088-6.638-13.253-10.65-31.591-8.335-18.34 2.315-18.34 18.059-37.295 22.226-18.955 4.168-29.434 3.705-52.55-12.348-23.117-16.053-40.069-2.007-59.486.926-19.418 2.933-32.664-2.46-49.912-10.36-17.248-7.899-33.376-25.362-40.786-50.901-7.41-25.54-2.179-31.215-46.857-44.75C-9.753 90.14-.653 40.43 4.168 26.759 8.99 13.085 47.205.936 47.205.936S74.155.861 91.59 30.984c17.435 30.124 37.268 37.982 52.524 31.87 15.256-6.112 30.076-14.625 60.152 2.62 30.076 17.244 64.728 69.197 76.061 78.146 11.333 8.95 180.214 67.292 180.88 146.719z" fill="#17e4e0"/><path d="M39.04 0a34.908 34.908 0 0 1 11.57 1.927c24.041 8.335 21.391 16.979 31.562 41.058 10.172 24.079 31.462 28.606 60.921 19.266 43.856-13.904 61.79 28.318 74.25 39.458 24.923 21.816 92.457 34.914 139.918 54.571 68.516 28.377 97.854 84.891 104.018 107.273 6.164 22.38-.073 26.786-.073 26.786-2.388 2.16-3.934-6.412-9.482-21.076-5.547-14.663-19.417-36.426-28.51-40.593-9.092-4.168-14.641-13.121-24.812-16.671-10.171-3.55-11.712 1.39-30.513-17.132-18.801-18.523-35.137-24.079-63.493 2.47-28.356 26.548-49.314 29.326-59.176 12.656-9.863-16.67-33.597-34.884-61.336-16.67-27.74 18.213-60.72 17.596-80.753-12.657-20.035-30.253-4.315-58.036-32.055-72.545-27.74-14.51-63.183-8.643-69.04-52.17C-2.904 19.223 17.958.08 39.04 0zm10.462 51.32s.765 1.273 2.808 3.635c9.863 12.198 47.727 53.73 130.65 88.358 98.32 41.057 139.599 36.05 139.599 36.05s-66.245-8.576-162.408-55.499C84.822 87.108 59.698 63.493 52.311 54.954c-1.832-2.264-2.809-3.635-2.809-3.635z" fill="#3ef8f4"/></svg>
